assets/images/afrikons/setting.svg

<svg viewBox="0 0 51 51" xmlns="http://www.w3.org/2000/svg"><g fill="none"><path d="m.5.5h50v50h-50z"/><path d="m.5.5h50v50h-50z"/><path d="m27.15 19.51c-.23-.06-.46-.13-.7-.17h-.31c-.21 0-.43 0-.64 0a6.23 6.23 0 0 0 0 12.46h.64.31a6.27 6.27 0 0 0 5.28-6.16 6.12 6.12 0 0 0 -.27-1.72 6.25 6.25 0 0 0 -4.31-4.41z"/><path d="m49.52 21.62h-5l-.14-.62a19.12 19.12 0 0 0 -2.38-5.7l-.31-.5 3.54-3.54-5.49-5.49-3.54 3.54-.5-.31a19.12 19.12 0 0 0 -5.7-2.38l-.58-.14v-5h-7.8v5l-.62.14a19.12 19.12 0 0 0 -5.7 2.38l-.5.31-3.54-3.54-5.49 5.49 3.54 3.54-.31.5a19.12 19.12 0 0 0 -2.38 5.7l-.14.58h-5v7.76h5l.14.58a19.12 19.12 0 0 0 2.38 5.78l.31.5-3.54 3.54 5.49 5.49 3.54-3.54.5.31a19.07 19.07 0 0 0 5.75 2.38l.57.14v5h7.76v-5l.58-.14a19.12 19.12 0 0 0 5.74-2.38l.5-.31 3.54 3.54 5.49-5.49-3.54-3.54.31-.5a19.07 19.07 0 0 0 2.38-5.7l.14-.57h5zm-24 11.59a7.71 7.71 0 1 1 7.71-7.71 7.72 7.72 0 0 1 -7.73 7.71z"/></g><path d="m51 30.86v-10.72h-5.32a20.82 20.82 0 0 0 -2.12-5.14l3.76-3.76-7.58-7.56-3.74 3.76a20.82 20.82 0 0 0 -5.12-2.12v-5.32h-10.74v5.32a20.82 20.82 0 0 0 -5.14 2.12l-3.74-3.76-7.58 7.58 3.76 3.74a20.82 20.82 0 0 0 -2.12 5.12h-5.32v10.74h5.32a20.82 20.82 0 0 0 2.12 5.14l-3.76 3.74 7.58 7.58 3.74-3.76a20.82 20.82 0 0 0 5.12 2.12v5.32h10.74v-5.32a20.82 20.82 0 0 0 5.14-2.12l3.76 3.76 7.58-7.58-3.78-3.74a20.82 20.82 0 0 0 2.12-5.12zm-6.48-1.48-.14.57a19.07 19.07 0 0 1 -2.38 5.75l-.31.5 3.54 3.54-5.49 5.49-3.54-3.54-.5.31a19.12 19.12 0 0 1 -5.7 2.38l-.58.14v5h-7.8v-5l-.57-.14a19.07 19.07 0 0 1 -5.75-2.38l-.5-.31-3.54 3.54-5.49-5.49 3.54-3.54-.31-.5a19.12 19.12 0 0 1 -2.38-5.7l-.14-.58h-5v-7.8h5l.14-.62a19.12 19.12 0 0 1 2.38-5.7l.31-.5-3.54-3.54 5.49-5.49 3.54 3.54.5-.31a19.12 19.12 0 0 1 5.7-2.38l.58-.14v-5h7.76v5l.58.14a19.12 19.12 0 0 1 5.78 2.38l.5.31 3.54-3.54 5.49 5.49-3.54 3.54.31.5a19.12 19.12 0 0 1 2.38 5.7l.14.58h5v7.76z"/><path d="m25.5 17.79a7.71 7.71 0 1 0 7.71 7.71 7.72 7.72 0 0 0 -7.71-7.71zm.95 13.87h-.31c-.21 0-.43 0-.64 0a6.23 6.23 0 0 1 0-12.46h.64.31c.24 0 .47.11.7.17a6.25 6.25 0 0 1 4.31 4.27 6.12 6.12 0 0 1 .27 1.72 6.27 6.27 0 0 1 -5.28 6.3z"/></svg>

<svg xmlns="http://www.w3.org/2000/svg" viewBox="0 0 51 51"><defs><style>.cls-1{fill:none;}</style></defs><title>setting</title><g id="Layer_2" data-name="Layer 2"><g id="Layer_1-2" data-name="Layer 1"><rect class="cls-1" x="0.5" y="0.5" width="50" height="50"/><rect class="cls-1" x="0.5" y="0.5" width="50" height="50"/><path class="cls-1" d="M27.15,19.51c-.23-.06-.46-.13-.7-.17l-.31,0c-.21,0-.43,0-.64,0a6.23,6.23,0,0,0,0,12.46c.21,0,.43,0,.64,0l.31,0a6.27,6.27,0,0,0,5.28-6.16,6.12,6.12,0,0,0-.27-1.72A6.25,6.25,0,0,0,27.15,19.51Z"/><path class="cls-1" d="M49.52,21.62h-5L44.38,21A19.12,19.12,0,0,0,42,15.3l-.31-.5,3.54-3.54L39.74,5.77,36.2,9.31,35.7,9A19.12,19.12,0,0,0,30,6.62l-.58-.14v-5H21.62v5L21,6.62A19.12,19.12,0,0,0,15.3,9l-.5.31L11.26,5.77,5.77,11.26,9.31,14.8,9,15.3A19.12,19.12,0,0,0,6.62,21l-.14.58h-5v7.76h5l.14.58A19.12,19.12,0,0,0,9,35.7l.31.5L5.77,39.74l5.49,5.49,3.54-3.54.5.31a19.07,19.07,0,0,0,5.75,2.38l.57.14v5h7.76v-5l.58-.14A19.12,19.12,0,0,0,35.7,42l.5-.31,3.54,3.54,5.49-5.49L41.69,36.2l.31-.5A19.07,19.07,0,0,0,44.38,30l.14-.57h5Zm-24,11.59a7.71,7.71,0,1,1,7.71-7.71A7.72,7.72,0,0,1,25.5,33.21Z"/><path d="M51,30.86V20.14H45.68A20.82,20.82,0,0,0,43.56,15l3.76-3.76L39.74,3.68,36,7.44a20.82,20.82,0,0,0-5.12-2.12V0H20.14V5.32A20.82,20.82,0,0,0,15,7.44L11.26,3.68,3.68,11.26,7.44,15a20.82,20.82,0,0,0-2.12,5.12H0V30.86H5.32A20.82,20.82,0,0,0,7.44,36L3.68,39.74l7.58,7.58L15,43.56a20.82,20.82,0,0,0,5.12,2.12V51H30.86V45.68A20.82,20.82,0,0,0,36,43.56l3.76,3.76,7.58-7.58L43.56,36a20.82,20.82,0,0,0,2.12-5.12Zm-6.48-1.48-.14.57A19.07,19.07,0,0,1,42,35.7l-.31.5,3.54,3.54-5.49,5.49L36.2,41.69l-.5.31A19.12,19.12,0,0,1,30,44.38l-.58.14v5H21.62v-5l-.57-.14A19.07,19.07,0,0,1,15.3,42l-.5-.31-3.54,3.54L5.77,39.74,9.31,36.2,9,35.7A19.12,19.12,0,0,1,6.62,30l-.14-.58h-5V21.62h5L6.62,21A19.12,19.12,0,0,1,9,15.3l.31-.5L5.77,11.26l5.49-5.49L14.8,9.31,15.3,9A19.12,19.12,0,0,1,21,6.62l.58-.14v-5h7.76v5l.58.14A19.12,19.12,0,0,1,35.7,9l.5.31,3.54-3.54,5.49,5.49L41.69,14.8l.31.5A19.12,19.12,0,0,1,44.38,21l.14.58h5v7.76Z"/><path d="M25.5,17.79a7.71,7.71,0,1,0,7.71,7.71A7.72,7.72,0,0,0,25.5,17.79Zm.95,13.87-.31,0c-.21,0-.43,0-.64,0a6.23,6.23,0,0,1,0-12.46c.21,0,.43,0,.64,0l.31,0c.24,0,.47.11.7.17a6.25,6.25,0,0,1,4.31,4.27,6.12,6.12,0,0,1,.27,1.72A6.27,6.27,0,0,1,26.45,31.66Z"/></g></g></svg>
